packages/dnb-eufemia/assets/icons/log_out.svg

<svg width="16" height="16" viewBox="0 0 16 16" fill="none" xmlns="http://www.w3.org/2000/svg">
<path d="M11.2242 13.1336C11.2242 13.3812 11.1259 13.6186 10.9509 13.7936C10.7758 13.9686 10.5384 14.067 10.2909 14.067M10.2909 2.86704C10.5384 2.86704 10.7758 2.96537 10.9509 3.1404C11.1259 3.31544 11.2242 3.55283 11.2242 3.80037M13.1333 6.59973L15 8.46638M15 8.46638L13.1333 10.333M15 8.46638H10.5M4.76667 7.76701C4.72041 7.76701 4.6752 7.78076 4.63678 7.80651C4.59836 7.83226 4.56845 7.86885 4.55087 7.91163C4.53328 7.95441 4.52881 8.00145 4.53802 8.04678C4.54722 8.09211 4.56969 8.13368 4.60258 8.16621C4.63546 8.19874 4.67727 8.22077 4.72269 8.22949C4.76812 8.23821 4.81511 8.23323 4.8577 8.21519C4.90029 8.19714 4.93655 8.16685 4.96189 8.12815C4.98723 8.08946 5.00049 8.0441 5 7.99785C5.00008 7.96718 4.9941 7.93681 4.98241 7.90846C4.97071 7.88011 4.95352 7.85436 4.93184 7.83268C4.91016 7.81099 4.8844 7.79381 4.85606 7.78211C4.82771 7.77042 4.79733 7.76444 4.76667 7.76452M7.00071 14.9953L1.40071 14.1951C1.28949 14.1794 1.18771 14.124 1.11408 14.0392C1.04045 13.9544 0.999941 13.8458 1 13.7335V2.84899C0.999912 2.74213 1.03651 2.63847 1.10366 2.55534C1.17082 2.47222 1.26448 2.41466 1.36898 2.39229L6.96898 1.01034C7.03704 0.995768 7.10751 0.996608 7.17521 1.0128C7.24291 1.02899 7.30613 1.06012 7.36023 1.10391C7.41434 1.14769 7.45797 1.20303 7.48792 1.26587C7.51787 1.3287 7.53339 1.39744 7.53333 1.46705V14.5336C7.53329 14.6005 7.5189 14.6665 7.49112 14.7273C7.46334 14.7881 7.42283 14.8422 7.37233 14.886C7.32183 14.9297 7.26252 14.9622 7.1984 14.981C7.13429 14.9999 7.06687 15.0048 7.00071 14.9953Z" stroke="black" stroke-width="1.5" stroke-linecap="round" stroke-linejoin="round"/>
</svg>

<svg width="16" height="16" viewBox="0 0 16 16" fill="none" xmlns="http://www.w3.org/2000/svg"><path d="M11.224 13.134a.933.933 0 0 1-.933.933m0-11.2a.934.934 0 0 1 .933.933m1.91 2.8L15 8.466m0 0-1.867 1.867M15 8.466h-4.5m-5.733-.699a.233.233 0 1 0 .233.23.233.233 0 0 0-.233-.232M7 14.995l-5.6-.8a.466.466 0 0 1-.4-.462V2.85a.467.467 0 0 1 .369-.457l5.6-1.382a.467.467 0 0 1 .564.457v13.067a.467.467 0 0 1-.532.461Z" stroke="#000" stroke-width="1.5" stroke-linecap="round" stroke-linejoin="round"/></svg>
